app/dist/common/images/china-zheshang-bank-co-ltd.svg

<svg height="18" viewBox="0 0 18 18" width="18" xmlns="http://www.w3.org/2000/svg"><path d="m0 0h18v18h-18z" fill="#f0f3fa"/><path d="m4.16 10.95a.56.56 0 0 1 .79-.79l2.89 2.89a.56.56 0 0 1 -.79.79zm6-6a.56.56 0 0 1 .79-.79l2.89 2.89a.56.56 0 0 1 -.79.79zm-5.99 3.06a.6.6 0 0 1 .84-.84l1.82 1.83a.6.6 0 0 1 -.84.84l-1.82-1.84zm1-1a.6.6 0 0 1 .84-.84l1.82 1.83a.6.6 0 0 1 -.84.84l-1.82-1.84zm1-1a.6.6 0 0 1 .84-.84l1.82 1.83a.6.6 0 0 1 -.84.84l-1.82-1.84zm1-1a.6.6 0 0 1 .84-.84l1.82 1.83a.6.6 0 0 1 -.84.84l-1.82-1.84zm1 7a.6.6 0 0 1 .84-.84l1.82 1.83a.6.6 0 0 1 -.84.84l-1.82-1.84zm1-1a.6.6 0 0 1 .84-.84l1.82 1.83a.6.6 0 0 1 -.84.84l-1.82-1.84zm1-1a.6.6 0 1 1 .84-.84l1.82 1.83a.6.6 0 0 1 -.84.84l-1.82-1.84zm1-1a.6.6 0 0 1 .84-.84l1.82 1.83a.6.6 0 0 1 -.84.84l-1.82-1.84z" fill="#d20419"/></svg>

<!-- by TradingView --><svg width="18" height="18" viewBox="0 0 18 18" xmlns="http://www.w3.org/2000/svg"><path fill="#F0F3FA" d="M0 0h18v18H0z"/><path d="M4.16 10.95a.56.56 0 0 1 .79-.79l2.89 2.89a.56.56 0 0 1-.79.79l-2.89-2.89ZM10.16 4.95a.56.56 0 0 1 .79-.79l2.89 2.89a.56.56 0 0 1-.79.79l-2.89-2.89ZM4.17 8.01a.6.6 0 0 1 .84-.84L6.83 9a.6.6 0 0 1-.84.84L4.17 8ZM5.17 7.01a.6.6 0 0 1 .84-.84L7.83 8a.6.6 0 0 1-.84.84L5.17 7ZM6.17 6.01a.6.6 0 0 1 .84-.84L8.83 7a.6.6 0 0 1-.84.84L6.17 6ZM7.17 5.01a.6.6 0 0 1 .84-.84L9.83 6a.6.6 0 0 1-.84.84L7.17 5ZM8.17 12.01a.6.6 0 0 1 .84-.84L10.83 13a.6.6 0 0 1-.84.84L8.17 12ZM9.17 11.01a.6.6 0 0 1 .84-.84L11.83 12a.6.6 0 0 1-.84.84L9.17 11ZM10.17 10.01a.6.6 0 1 1 .84-.84L12.83 11a.6.6 0 0 1-.84.84L10.17 10ZM11.17 9.01a.6.6 0 0 1 .84-.84L13.83 10a.6.6 0 0 1-.84.84L11.17 9Z" fill="#D20419"/></svg>
